X:1
T:Non ti lascio, Eurilla
T:Non ti lascio, Eurilla
T:Domenico Obizzi
T:Arietta
T:Source : Madrigali et arie a voce sola---Libro I ---Venetia---A.Vincenti---1627. Editor : André Vierendeels (05/03/16).
T:Notes : Original clefs : C1, F4 Editorial accidentals above the staff Note values have been halved Dotted brackets indicate black notes Notation in original print:" Alfabeto d'ariette per la Chitarra alla Spagnola", realised by the editor.  
T:©
T:©
T:©
C:Domenico Obizzi
Z:©
%%score 1 { ( 2 3 ) | 4 }
L:1/8
Q:1/4=150
M:3/2
K:F
V:1 treble nm="Soprano" snm="S"
V:2 treble nm="BC" snm="BC"
V:3 treble 
V:4 bass 
V:1
 d2 c2 d2 B2 c2 A2 | B2 G2 B4 A4 | G4 F2 G2 _E4 | z2 D2 _EDEF GFGA | B2 cd _ed cB A4 | G12 :: %6
w: Non ti la- scio'Eu- ril- la|mi- a, ben che|lun- gi da te,|ri- vol- * * * * * * *|* * * * * ga'il _ pie-|de,|
w: Dun- que'il pian- to'ho- mai raf-|fre- na ch'io ben|sen- to'in par- tir|fie- ro _ _ _ _ _ _ _|_ _ _ _ _ do- * lo-|re,|
w: So che m'a- mi'e la tua|vi- ta, so che|son io co- me|tu sei _ _ _ _ _ _ _|_ _ _ _ _ la _ mi-|a,|
w: Ma se'il duol a- cer- bo'e|fie- ro, di vi-|ta non ne pri-|na'e per _ _ _ _ _ _ _|_ _ _ _ _ n'an- * ci-|de,|
w: Per- che vuol con la spe-|ran- za, di do-|ver far à te|pre- sto _ _ _ _ _ _ _|_ _ _ _ _ ri- * tor-|no,|
 z2 B2 A2 B2 G4 | GABc A4 B4 | z2 d2 c2 d2 B4 | Bcd_e c4 B4 | z4 d4 B4 | c4 B4 A4 | B6 A2 c4 | %13
w: che vuol A- mor,|vuol _ _ _ fe- de,|che vuol A- mor,|vuol _ _ _ fe- de,|che'l mio|cor in mia|ve- ce te-|
w: ma piu m'af- flig-|ge'il _ _ _ co- re,|il ve- der, che|per _ _ _ me tu,|il ve-|der, che per|me tu vi-|
w: so qual pe- n'an-|co _ _ _ di- a,|al mio sen' al|tu- * * * o sen',|al mio|sen' al tuo|sen' la mia|
w: men- tre cor- pi|di- * * * vi- de,|e ben d'A- mor|mi- * * * ra- col,|e ben|d'A- mor mi-|ra- col nuo-|
w: sgom- brar le ne|bie'in- * * * tor- no,|on- de lie- ti|vi- * * * * vam,|on- de|lie- ti vi-|vam quel che|
 B4 A8 | G4 d4 B4 | c4 B4 A4 | B8 G4 | z12 | z4 G4 _E4 | F4 _E4 D4 | _E8 D4 | _E2 D2 E2 F2 G2 A2 | %22
w: co sti-|a, che'l mio|cor in mia|ve- ce,||che'l mio|cor in mia|ve- ce,|te- * * * * *|
w: v'in pe-|na, il ve-|der, che per|me tu,||il ve-|der, che per|me tu|vi- * * * * *|
w: par- ti-|ta, al mio|sen', al tu-|o sen',||al mio|sen', al tu-|o sen',|la _ _ _ _ _|
w: vo'e ve-|ro, e ben|d'A- mor mi-|ra- col,||e ben|d'A- mor mi-|ra- col|vuo- * * * * *|
w: n'a- van-|za, on- de|li- e- ti|vi- vam,||on- de|li- e- ti|vi- vam,|quel _ _ _ _ _|
 B2 c2 A8 | G12 :| %24
w: co _ sti-|a.|
w: v'in _ pe-|na.|
w: mia par- ti-|ta.|
w: vo'e _ ve-|ro.|
w: che n'a- van-|za.|
V:2
 B8 A4 | G8 A4 | B4 F4 G4 | d4 G4 B2 c2 | B4 G4 A4 | B12 :: G4 A4 G4 | F4 A4 F4- | F4 A4 B4 | %9
 B4 A4 F4 | B8 d4 | A4 d4 A4 | B4 c4 G4 | B4 d8 | B12 | c4 G4 A4 | G8 B4 | A4 c4 f4 | B12 | %19
 A4 c4 d4 | c8 =B4 | c8 B4 | G4 d8 | B12 :| %24
V:3
 D8 F4 | D8 C4 | G4 D4 _E4 | G4 _E4 D2 F2 | D4 _E4 D4 | D12 :: D4 F4 B,4 | D4 C4 D4- | D4 F4 D4 | %9
 G4 C4 D4 | D8 F4- | F4 D8 | D4 G4 _E4 | D4 G4 ^F4 | G12 | F4 D8 | D8 G4 | C4 G4 A4 | G12 | %19
 F4 G4 G4 | G8 F4 | _E8 G4 | _E4 G4 ^F4 | G12 :| %24
V:4
 G,8 A,4 | G,8 F,4 | _E,4 D,4 C,4 | =B,,4 C,4 B,,2 A,,2 | G,,4 C,4 D,4 | G,,12 :: G,4 D,4 _E,4 | %7
 B,,4 F,4 B,,4 | B,4 F,4 G,4 | _E,4 F,4 B,,4 | B,8 B,4 | A,4 G,4 ^F,4 | G,4 _E,4 C,4 | G,,4 D,8 | %14
 G,,8 G,4 | A,4 G,4 ^F,4 | G,4 G,4 _E,4 | F,4 _E,4 D,4 | _E,8 E,4 | D,4 C,4 =B,,4 | C,8 =B,,4 | %21
 C,4 B,,2 A,,2 G,,4 | C,4 D,8 | G,,12 :| %24

